X: 18204
T: Humours Of Glendart, The
R: jig
M: 6/8
K: Dmajor
|:BAF ADD|FEF DFA|BAF ADD|FEE EFA|
BAF ADD|FEF DFA|dcB AFE|FDD DFA:|
|:def d2B|ABA AFA|def d2f|ede fdB|
def d2B|dBA ABc|dcB AFE|FDD DFA:|

